client/media/icons/_10_location.svg

<?xml version="1.0" encoding="UTF-8" standalone="no"?><!DOCTYPE svg PUBLIC "-//W3C//DTD SVG 1.1//EN" "http://www.w3.org/Graphics/SVG/1.1/DTD/svg11.dtd"><svg width="100%" height="100%" viewBox="0 0 48 48" version="1.1" xmlns="http://www.w3.org/2000/svg" xmlns:xlink="http://www.w3.org/1999/xlink" xml:space="preserve" xmlns:serif="http://www.serif.com/" style="fill-rule:evenodd;clip-rule:evenodd;stroke-linejoin:round;stroke-miterlimit:2;"><path d="M24,23.675c1.033,0 1.925,-0.375 2.675,-1.125c0.75,-0.75 1.125,-1.642 1.125,-2.675c0,-1.033 -0.375,-1.925 -1.125,-2.675c-0.75,-0.75 -1.642,-1.125 -2.675,-1.125c-1.033,0 -1.925,0.375 -2.675,1.125c-0.75,0.75 -1.125,1.642 -1.125,2.675c0,1.033 0.375,1.925 1.125,2.675c0.75,0.75 1.642,1.125 2.675,1.125Zm0,21.3c-5.633,-4.8 -9.85,-9.25 -12.65,-13.35c-2.8,-4.1 -4.2,-7.883 -4.2,-11.35c0,-5.267 1.692,-9.458 5.075,-12.575c3.383,-3.117 7.308,-4.675 11.775,-4.675c4.467,0 8.392,1.558 11.775,4.675c3.383,3.117 5.075,7.308 5.075,12.575c0,3.467 -1.4,7.25 -4.2,11.35c-2.8,4.1 -7.017,8.55 -12.65,13.35Z" style="fill-rule:nonzero;"/></svg>

<?xml version="1.0" encoding="UTF-8" standalone="no"?>
<!DOCTYPE svg PUBLIC "-//W3C//DTD SVG 1.1//EN" "http://www.w3.org/Graphics/SVG/1.1/DTD/svg11.dtd">
<svg width="100%" height="100%" viewBox="0 0 40 40" version="1.1" xmlns="http://www.w3.org/2000/svg" xmlns:xlink="http://www.w3.org/1999/xlink" xml:space="preserve" xmlns:serif="http://www.serif.com/" style="fill-rule:evenodd;clip-rule:evenodd;stroke-linejoin:round;stroke-miterlimit:2;">
    <g transform="matrix(0.981969,0,0,0.953516,-3.56725,-2.88439)">
        <path d="M24,23.675C25.033,23.675 25.925,23.3 26.675,22.55C27.425,21.8 27.8,20.908 27.8,19.875C27.8,18.842 27.425,17.95 26.675,17.2C25.925,16.45 25.033,16.075 24,16.075C22.967,16.075 22.075,16.45 21.325,17.2C20.575,17.95 20.2,18.842 20.2,19.875C20.2,20.908 20.575,21.8 21.325,22.55C22.075,23.3 22.967,23.675 24,23.675ZM24,44.975C18.367,40.175 14.15,35.725 11.35,31.625C8.55,27.525 7.15,23.742 7.15,20.275C7.15,15.008 8.842,10.817 12.225,7.7C15.608,4.583 19.533,3.025 24,3.025C28.467,3.025 32.392,4.583 35.775,7.7C39.158,10.817 40.85,15.008 40.85,20.275C40.85,23.742 39.45,27.525 36.65,31.625C33.85,35.725 29.633,40.175 24,44.975Z" style="fill-rule:nonzero;"/>
    </g>
</svg>
